X: 239
T:Speed the Plough
R:reel
M:C|
K:D
d3A BAFB|AF~F2 EFDE|F2AF G2BG|ABde fgfe|
d2dA BAFB|AF~F2 EFDE|F2AF G2BG|1 ABde fddc:|2 ABde fdde||
|:fa~a2 afdf|gefd edBd|faab afdB|ABde fdde|
faaf afdf|gefd edBA|F2AF G2BG|1 ABde fdde:|2 ABde fgfe||

